X:1
T:Couplets des Rois
T:Couplets des Rois
T:Offenbach
C:Offenbach
%%score 1 2
L:1/8
M:2/4
K:F
V:1 treble 
V:2 treble 
V:1
 c | c z c z | cA/c/ dd | cA/c/ ee | cA/c/ ff | e z d z | dc c2- | c4- | c2 z c | c z c z | %10
w: Ces|Rois rem-|plis de vail- lan- ce|plis de vail- lan- ce|plis de vail- lan- ce|C'est les|deux A- jax||* E-|ta- lant|
w: Je|suis le|bouil- lant A- chil- le|bouil- lant A- chil- le|bouil- lant A- chil- le|Le grand|myr- mi- don||* Com-|bat- tant|
w: Je|suis ma-|ri de la rei- ne,|ri de la rei- ne,|ri de la rei- ne,|Le Roi|Mé- né- las||* Je|crains bien|
w: Le|Roi bar-|bu qui s'a- van- ce,|bu qui s'a- van- ce,|bu qui s'a- van- ce,|C'est A-|ga- mem- non!||* Et|ce nom|
 cA/c/ dd | cA/c/ ee | cA/c/ ff | e z d z | dc c2- | c4- | c2 z c | c2 d_e | _ed ed | dc dc | %20
w: t'a- vec jac- tan- ce|t'a- vec jac- tan- ce|t'a- vec jac- tan- ce|Leur dou-|ble tho- rax||* Par-|mi le fra-|cas im- men- se|Des cui- vres de|
w: un con- tre mil- le|un con- tre mil- le|un con- tre mil- le,|Grà- ce~à|mon plon- geon||* J'au-|rais l'es- prit|bien tran- quil- le,|N'é- tait mon ta-|
w: qu'un jour Hé- lè- ne,|qu'un jour Hé- lè- ne,|qu'un jour Hé- lè- ne,|Je le|dis tout bas||* Ne|me fas- se|de la pei- ne,|N'an- ti- ci- pons|
w: seul me dis- pen- se,|seul me dis- pen- se,|seul me dis- pen- se,|D'en di-|re plus long:||* J'en|ai dit as-|sez je pen- se|En di- sant mon|
 B2 z G | G z B z | BA/A/ Ac | cB/B/ Bd | dc/c/ cf | ed cB | AF AB | c2 E2 | FF ED | ^CC/C/ CC | %30
w: Sax. Ces|Rois rem-|plis de vail- lan- ce|plis de vail- lan- ce|plis de vail- lan- ce|C'est les deux A-|jax les deux les|deux A-|jax Ces Rois rem-|plis de vail- lan- ce|
w: lon Je|suis le|bouil- lant A- chil- le|bouil- lant A- chil- le|bouil- lant A- chil- le|Le grand myr- mi-|don Le Myr, le|Myr- mi-|don Voi- ci le|bouil- lant A- chil- le|
w: pas Je|suis ma-|ri de la rei- ne,|ri de la rei- ne,|ri de la rei- ne,|Le Roi Mé- né-|las Le Mé- né,|Mé- né-|las! C'est le ma-|ri de la rei- ne,|
w: nom. Le|Roi bar-|bu qui s'a- van- ce,|bu qui s'a- van- ce,|bu qui s'a- van- ce,|C'est A- ga- mem-|non! A- ga, A-|ga- mem-|non Le Roi bar-|bu qui s'a- van- ce,|
 DD/D/ Bd | ff ee | fF ED | ^CC/C/ CC | DD/D/ Bd | ff ee | f>F F>A | A>F A>c | f4- | f4 |] %40
w: plis de vail- lan- ce|C'est les deux A-|jax Ces Rois rem-|plis de vail- lan- ce|plis de vail- lan- ce|C'est les deux A-|jax * * *||||
w: bouil- lant A- chil- le|Le grand myr- mi-|don Voi- ci le|bouil- lant A- chil- le|bouil- lant A- chil- le|Le grand myr- mi-|don * * *||||
w: ri de la rei- ne,|Le Roi Mé- né-|las C'est le ma-|ri de la rei- ne,|ri de la rei- ne,|Le Roi Mé- né-|las * * *||||
w: bu qui s'a- van- ce,|C'est A- ga- mem-|non! Le Roi bar-|bu qui s'a- van- ce,|bu qui s'a- van- ce,|C'est A- ga- mem-|non! A- ga, A-|ga, A- ga- mem-|non!||
V:2
 z | z4 | z4 | z4 | z4 | z4 | z2 z A | cB BE | F2 z2 | z4 | z4 | z4 | z4 | z4 | z2 z A | cB BE | %16
w: ||||||Les|deux les deux A-|jax!||||||Leur|dou dou- ble tho-|
w: ||||||Le|myr le myr- mi-|don!||||||Grâ-|ce~au Grâ- ce~au plon-|
w: ||||||Le|Mé- né, Mé- né-|las!||||||Il|dit tout, tout, tout|
w: ||||||A-|ga, A- ga- mem-|non!||||||D'en|di, di- re plus|
 F2 z2 | z4 | z4 | z4 | z4 | z4 | z4 | z4 | z4 | z4 | z4 | z4 | z F ED | ^CC/C/ CC | %30
w: rax||||||||||||||
w: geon||||||||||||||
w: bas.||||||||||||||
w: long||||||||||||||
 DD/D/ B,[B,B] | [CA][CA] [CBc][CBc] | [FAc]F ED | ^CC/C/ CC | DD/D/ B,[B,B] | %35
w: |||||
w: |||||
w: |||||
w: |||||
 [CA][CA] [CBc][CBc] | [FAc]>[FAc] [FAc]>[FAc] | [FAc]>[FAc] [FAc]>[FAc] | [FAca]4- | [FAca]4 |] %40
w: |||||
w: |||||
w: |||||
w: |||||

